public/icons/n8n-icon.svg

<svg xmlns="http://www.w3.org/2000/svg" xmlns:xlink="http://www.w3.org/1999/xlink" zoomAndPan="magnify" height="1em" width="1em" preserveAspectRatio="xMidYMid meet" version="1.0" viewBox="645.01 363.07 147.74 77.4">
  <path stroke="#61DAFB" fill="#61DAFB" d="M 777.199219 394.035156 C 769.953125 394.035156 763.863281 389.101562 762.140625 382.425781 L 744.3125 382.425781 C 740.511719 382.425781 737.269531 385.160156 736.644531 388.890625 L 736.003906 392.710938 C 735.398438 396.335938 733.554688 399.488281 730.949219 401.773438 C 733.554688 404.0625 735.398438 407.214844 736.003906 410.839844 L 736.644531 414.65625 C 737.269531 418.390625 740.511719 421.125 744.3125 421.125 L 746.585938 421.125 C 748.3125 414.449219 754.402344 409.515625 761.648438 409.515625 C 770.238281 409.515625 777.199219 416.445312 777.199219 424.996094 C 777.199219 433.542969 770.238281 440.476562 761.648438 440.476562 C 754.402344 440.476562 748.3125 435.542969 746.585938 428.863281 L 744.3125 428.863281 C 736.710938 428.863281 730.222656 423.394531 728.972656 415.929688 L 728.335938 412.113281 C 727.710938 408.378906 724.464844 405.644531 720.664062 405.644531 L 714.503906 405.644531 C 712.777344 412.320312 706.6875 417.253906 699.441406 417.253906 C 692.195312 417.253906 686.105469 412.320312 684.378906 405.644531 L 675.625 405.644531 C 673.898438 412.320312 667.808594 417.253906 660.5625 417.253906 C 651.972656 417.253906 645.011719 410.324219 645.011719 401.773438 C 645.011719 393.226562 651.972656 386.296875 660.5625 386.296875 C 667.808594 386.296875 673.898438 391.230469 675.625 397.90625 L 684.378906 397.90625 C 686.105469 391.230469 692.195312 386.296875 699.441406 386.296875 C 706.6875 386.296875 712.777344 391.230469 714.503906 397.90625 L 720.664062 397.90625 C 724.464844 397.90625 727.710938 395.167969 728.335938 391.4375 L 728.972656 387.621094 C 730.222656 380.15625 736.710938 374.683594 744.3125 374.683594 L 762.140625 374.683594 C 763.863281 368.007812 769.953125 363.074219 777.199219 363.074219 C 785.789062 363.074219 792.753906 370.003906 792.753906 378.554688 C 792.753906 387.105469 785.789062 394.035156 777.199219 394.035156 Z M 777.199219 386.296875 C 781.496094 386.296875 784.976562 382.828125 784.976562 378.554688 C 784.976562 374.28125 781.496094 370.816406 777.199219 370.816406 C 772.90625 370.816406 769.425781 374.28125 769.425781 378.554688 C 769.425781 382.828125 772.90625 386.296875 777.199219 386.296875 Z M 660.5625 409.515625 C 664.855469 409.515625 668.339844 406.050781 668.339844 401.773438 C 668.339844 397.5 664.855469 394.035156 660.5625 394.035156 C 656.269531 394.035156 652.785156 397.5 652.785156 401.773438 C 652.785156 406.050781 656.269531 409.515625 660.5625 409.515625 Z M 707.21875 401.773438 C 707.21875 406.050781 703.734375 409.515625 699.441406 409.515625 C 695.148438 409.515625 691.667969 406.050781 691.667969 401.773438 C 691.667969 397.5 695.148438 394.035156 699.441406 394.035156 C 703.734375 394.035156 707.21875 397.5 707.21875 401.773438 Z M 769.425781 424.996094 C 769.425781 429.269531 765.941406 432.734375 761.648438 432.734375 C 757.355469 432.734375 753.875 429.269531 753.875 424.996094 C 753.875 420.71875 757.355469 417.253906 761.648438 417.253906 C 765.941406 417.253906 769.425781 420.71875 769.425781 424.996094 Z M 769.425781 424.996094 " fill-opacity="1" fill-rule="evenodd"/>
</svg>

<svg xmlns="http://www.w3.org/2000/svg" width="1em" height="1em" version="1.0" viewBox="645.01 363.07 147.74 77.4"><path fill="#61DAFB" fill-rule="evenodd" stroke="#61DAFB" d="M777.2 394.035c-7.247 0-13.337-4.933-15.06-11.61h-17.827c-3.801 0-7.043 2.735-7.668 6.466l-.641 3.82a15.4 15.4 0 0 1-5.055 9.062 15.43 15.43 0 0 1 5.055 9.067l.64 3.816c.626 3.735 3.868 6.469 7.668 6.469h2.274c1.726-6.676 7.816-11.61 15.062-11.61 8.59 0 15.551 6.93 15.551 15.481 0 8.547-6.96 15.48-15.55 15.48-7.247 0-13.336-4.933-15.063-11.613h-2.274c-7.601 0-14.09-5.468-15.34-12.933l-.636-3.817c-.625-3.734-3.871-6.468-7.672-6.468h-6.16c-1.727 6.675-7.817 11.609-15.063 11.609s-13.336-4.934-15.062-11.61h-8.754c-1.727 6.676-7.816 11.61-15.062 11.61-8.59 0-15.551-6.93-15.551-15.48 0-8.547 6.96-15.477 15.55-15.477 7.247 0 13.336 4.933 15.063 11.61h8.754c1.726-6.677 7.816-11.61 15.062-11.61s13.336 4.933 15.063 11.61h6.16c3.8 0 7.047-2.739 7.672-6.47l.637-3.816c1.25-7.465 7.738-12.937 15.34-12.937h17.828c1.722-6.676 7.812-11.61 15.058-11.61 8.59 0 15.555 6.93 15.555 15.48s-6.965 15.481-15.555 15.481Zm0-7.738c4.296 0 7.777-3.469 7.777-7.742 0-4.274-3.48-7.739-7.778-7.739-4.293 0-7.773 3.465-7.773 7.739 0 4.273 3.48 7.742 7.773 7.742Zm-116.638 23.219c4.293 0 7.778-3.465 7.778-7.743 0-4.273-3.485-7.738-7.778-7.738s-7.777 3.465-7.777 7.738c0 4.278 3.485 7.743 7.778 7.743Zm46.657-7.743c0 4.278-3.485 7.743-7.778 7.743s-7.773-3.465-7.773-7.743c0-4.273 3.48-7.738 7.773-7.738s7.778 3.465 7.778 7.738Zm62.207 23.223c0 4.274-3.485 7.738-7.778 7.738s-7.773-3.464-7.773-7.738c0-4.277 3.48-7.742 7.773-7.742s7.778 3.465 7.778 7.742Zm0 0"/></svg>
